material/.icons/material/shield-key.svg

<svg xmlns="http://www.w3.org/2000/svg" viewBox="0 0 24 24"><path d="M12 8a1 1 0 011 1 1 1 0 01-1 1 1 1 0 01-1-1 1 1 0 011-1m9 3c0 5.55-3.84 10.74-9 12-5.16-1.26-9-6.45-9-12V5l9-4 9 4v6m-9-5a3 3 0 00-3 3c0 1.31.83 2.42 2 2.83V18h2v-2h2v-2h-2v-2.17c1.17-.41 2-1.52 2-2.83a3 3 0 00-3-3z"/></svg>

<?xml version="1.0" encoding="UTF-8"?><!DOCTYPE svg PUBLIC "-//W3C//DTD SVG 1.1//EN" "http://www.w3.org/Graphics/SVG/1.1/DTD/svg11.dtd"><svg xmlns="http://www.w3.org/2000/svg" xmlns:xlink="http://www.w3.org/1999/xlink" version="1.1" id="mdi-shield-key" width="24" height="24" viewBox="0 0 24 24"><path d="M12,8A1,1 0 0,1 13,9A1,1 0 0,1 12,10A1,1 0 0,1 11,9A1,1 0 0,1 12,8M21,11C21,16.55 17.16,21.74 12,23C6.84,21.74 3,16.55 3,11V5L12,1L21,5V11M12,6A3,3 0 0,0 9,9C9,10.31 9.83,11.42 11,11.83V18H13V16H15V14H13V11.83C14.17,11.42 15,10.31 15,9A3,3 0 0,0 12,6Z" /></svg>
